static/images/sponsors/helsing.svg

<svg fill="none" height="112" viewBox="0 0 178 112" width="178" xmlns="http://www.w3.org/2000/svg" xmlns:xlink="http://www.w3.org/1999/xlink"><mask id="a" height="100" maskUnits="userSpaceOnUse" width="56" x="61" y="6"><path d="m116.923 6h-55.7497v100h55.7497z" fill="#fff"/></mask><mask id="b" height="100" maskUnits="userSpaceOnUse" width="56" x="61" y="6"><path d="m116.868 6h-55.6947v99.986h55.6947z" fill="#fff"/></mask><mask id="c" height="100" maskUnits="userSpaceOnUse" width="56" x="61" y="6"><path d="m116.868 6h-55.6947v99.986h55.6947z" fill="#fff"/></mask><mask id="d" height="100" maskUnits="userSpaceOnUse" width="56" x="61" y="6"><path d="m116.868 6h-55.6947v99.986h55.6947z" fill="#fff"/></mask><mask id="e" height="100" maskUnits="userSpaceOnUse" width="56" x="61" y="6"><path d="m116.868 6h-55.6947v99.986h55.6947z" fill="#fff"/></mask><g mask="url(#a)"><g fill="#fff"><path d="m116.799 6.04102h-18.528v75.19948h18.528z"/><path d="m79.7428 6.04102h-18.5282v75.19948h18.5282z"/><path d="m92.0949 31.1035h-6.1761v25.0619h6.1761z"/><path d="m71.3109 90.4434v12.3246h-1.7331v-5.5984h-6.4787v5.5984h-1.7331v-12.3246h1.7331v5.2269h6.4787v-5.2269z"/></g><g mask="url(#b)"><path d="m74.7084 97.3891h5.2682c-.0413-1.293-.9216-2.586-2.586-2.586-1.5681-.0138-2.6135.9216-2.6822 2.586zm-1.6919.8115c0-2.8886 1.8432-4.7455 4.3879-4.7455 2.8198 0 4.4291 2.3521 4.2228 5.2269h-6.9188c0 1.816 1.2242 2.93 2.7235 2.93 1.4305 0 2.0908-.605 2.4759-1.513h1.6094c-.4402 1.582-1.7744 2.875-4.0441 2.875-2.9573 0-4.4566-2.064-4.4566-4.7734z" fill="#fff"/></g><path d="m84.8047 90.4434h-1.5543v12.3246h1.5543z" fill="#fff"/><g mask="url(#c)"><path d="m92.3426 96.2886c-.2476-1.0867-1.0867-1.5131-2.2283-1.5131-.9767 0-1.9808.3301-1.9808 1.1554 0 .729.509 1.0317 1.4581 1.238l1.2929.2613c1.7194.3439 3.1912.9629 3.1912 2.7238 0 1.802-1.6368 2.847-3.7826 2.847-2.4622 0-3.824-1.582-3.989-3.1774h1.6368c.2476 1.1694.9767 1.8704 2.4072 1.8704 1.238 0 2.2008-.509 2.2008-1.361 0-.922-.8666-1.3072-1.9119-1.5135l-1.3618-.2751c-1.3067-.2751-2.6685-.8391-2.6685-2.5309 0-1.6232 1.6369-2.5447 3.7276-2.5447 2.0358 0 3.3838 1.1004 3.6727 2.8473z" fill="#fff"/></g><path d="m97.3357 102.768h-1.5543v-9.1472h1.5543zm0-10.4539h-1.5543v-1.8707h1.5543z" fill="#fff"/><g mask="url(#d)"><path d="m101.132 94.9957c.523-.8666 1.417-1.5406 2.957-1.5406 2.215 0 3.013 1.4305 3.013 3.5213v5.7906h-1.554v-5.3229c0-1.4168-.248-2.6273-2.009-2.6273-1.499 0-2.407 1.0317-2.407 2.9987v4.9655h-1.5404v-9.1471h1.5544v1.3618z" fill="#fff"/></g><g mask="url(#e)"><path d="m112.769 94.7893c-1.651 0-2.476 1.1692-2.476 3.2462 0 2.0905.839 3.2605 2.476 3.2605 1.375 0 2.586-.936 2.586-3.2605.014-2.3108-1.197-3.2462-2.586-3.2462zm2.531-1.1692h1.554v7.9089c0 1.871-.344 2.628-.866 3.205-.661.771-1.802 1.197-3.15 1.197-2.077 0-3.467-.963-3.769-2.806h1.65c.207.825.702 1.444 2.132 1.444.84 0 1.459-.247 1.871-.674.344-.371.592-.784.592-2.022v-.866c-.564.976-1.445 1.582-2.916 1.582-2.16 0-3.769-1.637-3.769-4.5672 0-2.9299 1.623-4.5667 3.769-4.5667 1.458 0 2.352.6327 2.916 1.6093v-1.4443z" fill="#fff"/></g></g></svg>

<svg width="178" height="112" viewBox="0 0 178 112" fill="none" xmlns="http://www.w3.org/2000/svg">
<mask id="mask0_64_33" style="mask-type:luminance" maskUnits="userSpaceOnUse" x="61" y="6" width="56" height="100">
<path d="M116.923 6H61.1733V106H116.923V6Z" fill="white"/>
</mask>
<g mask="url(#mask0_64_33)">
<path d="M116.799 6.04102H98.271V81.2405H116.799V6.04102Z" fill="white"/>
<path d="M79.7428 6.04102H61.2146V81.2405H79.7428V6.04102Z" fill="white"/>
<path d="M92.0949 31.1035H85.9188V56.1654H92.0949V31.1035Z" fill="white"/>
<path d="M71.3109 90.4434V102.768H69.5778V97.1696H63.0991V102.768H61.366V90.4434H63.0991V95.6703H69.5778V90.4434H71.3109Z" fill="white"/>
<mask id="mask1_64_33" style="mask-type:luminance" maskUnits="userSpaceOnUse" x="61" y="6" width="56" height="100">
<path d="M116.868 6H61.1733V105.986H116.868V6Z" fill="white"/>
</mask>
<g mask="url(#mask1_64_33)">
<path d="M74.7084 97.3891H79.9766C79.9353 96.0961 79.055 94.8031 77.3906 94.8031C75.8225 94.7893 74.7771 95.7247 74.7084 97.3891ZM73.0165 98.2006C73.0165 95.312 74.8597 93.4551 77.4044 93.4551C80.2242 93.4551 81.8335 95.8072 81.6272 98.682H74.7084C74.7084 100.498 75.9326 101.612 77.4319 101.612C78.8624 101.612 79.5227 101.007 79.9078 100.099H81.5172C81.077 101.681 79.7428 102.974 77.4731 102.974C74.5158 102.974 73.0165 100.91 73.0165 98.2006Z" fill="white"/>
</g>
<path d="M84.8047 90.4434H83.2504V102.768H84.8047V90.4434Z" fill="white"/>
<mask id="mask2_64_33" style="mask-type:luminance" maskUnits="userSpaceOnUse" x="61" y="6" width="56" height="100">
<path d="M116.868 6H61.1733V105.986H116.868V6Z" fill="white"/>
</mask>
<g mask="url(#mask2_64_33)">
<path d="M92.3426 96.2886C92.095 95.2019 91.2559 94.7755 90.1143 94.7755C89.1376 94.7755 88.1335 95.1056 88.1335 95.9309C88.1335 96.6599 88.6425 96.9626 89.5916 97.1689L90.8845 97.4302C92.6039 97.7741 94.0757 98.3931 94.0757 100.154C94.0757 101.956 92.4389 103.001 90.2931 103.001C87.8309 103.001 86.4691 101.419 86.3041 99.8236H87.9409C88.1885 100.993 88.9176 101.694 90.3481 101.694C91.5861 101.694 92.5489 101.185 92.5489 100.333C92.5489 99.411 91.6823 99.0258 90.637 98.8195L89.2752 98.5444C87.9685 98.2693 86.6067 97.7053 86.6067 96.0135C86.6067 94.3903 88.2436 93.4688 90.3343 93.4688C92.3701 93.4688 93.7181 94.5692 94.007 96.3161L92.3426 96.2886Z" fill="white"/>
</g>
<path d="M97.3357 102.768H95.7814V93.6208H97.3357V102.768ZM97.3357 92.3141H95.7814V90.4434H97.3357V92.3141Z" fill="white"/>
<mask id="mask3_64_33" style="mask-type:luminance" maskUnits="userSpaceOnUse" x="61" y="6" width="56" height="100">
<path d="M116.868 6H61.1733V105.986H116.868V6Z" fill="white"/>
</mask>
<g mask="url(#mask3_64_33)">
<path d="M101.132 94.9957C101.655 94.1291 102.549 93.4551 104.089 93.4551C106.304 93.4551 107.102 94.8856 107.102 96.9764V102.767H105.548V97.4441C105.548 96.0273 105.3 94.8168 103.539 94.8168C102.04 94.8168 101.132 95.8485 101.132 97.8155V102.781H99.5916V93.6339H101.146V94.9957H101.132Z" fill="white"/>
</g>
<mask id="mask4_64_33" style="mask-type:luminance" maskUnits="userSpaceOnUse" x="61" y="6" width="56" height="100">
<path d="M116.868 6H61.1733V105.986H116.868V6Z" fill="white"/>
</mask>
<g mask="url(#mask4_64_33)">
<path d="M112.769 94.7893C111.118 94.7893 110.293 95.9585 110.293 98.0355C110.293 100.126 111.132 101.296 112.769 101.296C114.144 101.296 115.355 100.36 115.355 98.0355C115.369 95.7247 114.158 94.7893 112.769 94.7893ZM115.3 93.6201H116.854V101.529C116.854 103.4 116.51 104.157 115.988 104.734C115.327 105.505 114.186 105.931 112.838 105.931C110.761 105.931 109.371 104.968 109.069 103.125H110.719C110.926 103.95 111.421 104.569 112.851 104.569C113.691 104.569 114.31 104.322 114.722 103.895C115.066 103.524 115.314 103.111 115.314 101.873V101.007C114.75 101.983 113.869 102.589 112.398 102.589C110.238 102.589 108.629 100.952 108.629 98.0218C108.629 95.0919 110.252 93.4551 112.398 93.4551C113.856 93.4551 114.75 94.0878 115.314 95.0644V93.6201H115.3Z" fill="white"/>
</g>
</g>
</svg>
